X:1
T:Title
%%score 1 { 2 | 3 }
L:1/8
Q:1/4=83
M:2/4
K:F
V:1 treble nm="Grand Piano, Soprano"
V:2 bass nm="Choir Pad, I Belong to Jesus (Lorenz)"
V:3 bass 
V:1
 C[CF] [CF][CF] | [EG][FA] [FA][FA]- | [FA][EG]- [EG]/F/[EA]- | [EA]/[EG]/[EG] F2 | %4
w: By~Edmund~Simon~Lorenz * * *||||
 C[CF] [CF][CF] | [EG][FA] [FA][FA]- | [FA][EG]- [EG]/F/[EA]- | [EA]/[EG]/[EG] F2 | %8
w: ||||
 z [Fd]- [Fd]/[Fd]/[Fd]- | [Fd]/[Fd]/[Fd] [Fc]2 | z [EB]- [EB]/[EB]/[EB]- | [EB]/[GB]/[GB] [FA]2 | %12
w: ||||
 z [Fd]- [Fd]/[Fd]/[Fd]- | [Fd]/[Fd]/[Fd] [Fc]F | [FG] [FA]2 [EG]- | [EG] F3- | F4 |] %17
w: |||||
V:2
 A,A, A,A, | C[K:treble]C CC- | CB,- B,/A,/C- | C/[K:bass]B,/B, A,2 | A,A, A,A, | CC CC- | %6
 C[K:bass]B,- B,/A,/C- | C/B,/B, A,2 | z B,- B,/B,/B,- | B,/B,/B, A,2 | z G,- G,/G,/G,- | %11
 G,/[K:treble]C/C C2 | z B,- B,/[K:bass]B,/B,- | B,/B,/B, A,C | D C2 B,- | B, A,3- | A,4 |] %17
V:3
 F,F, F,F, | C,F, F,F,- | F,C,- C,/C,/C,- | C,/C,/C, F,2 | F,F, F,F, | C,F, F,F,- | %6
 F,C,- C,/C,/C,- | C,/C,/C, F,2 | z4 | z F, F,2 | z C,- C,/C,/C,- | C,/C,/F, F,2 | z4 | %13
 z F, F,A,, | B,, C,2 C,- | C, F,3- | F,4 |] %17

